icons-dark/mimetypes/16/application-vnd.oasis.opendocument.text-template.svg

<svg width="16" xmlns="http://www.w3.org/2000/svg" height="16" viewBox="0 0 16 16">
 <path fill="#0b4764" color="#000000" stroke-width="1.4" d="m2 2v1h6v-1zm0 3v1h12v-1zm0 3v1h5v-1zm6 0v6h6v-6zm1 1h4v4h-4zm-7 1v1h5v-1zm0 3v1h5v-1z"/>
</svg>

<?xml version="1.0" encoding="UTF-8" standalone="no"?>

<!-- Created with Inkscape (http://www.inkscape.org/) -->
<svg width="16" version="1.1" xmlns="http://www.w3.org/2000/svg" height="16" viewBox="0 0 16 16" xmlns:inkscape="http://www.inkscape.org/namespaces/inkscape">
 <defs id="defs4"/>
 <metadata id="metadata7"/>
 <path inkscape:label="Capa 1" inkscape:groupmode="layer" inkscape:connector-curvature="0" style="fill:#6c7a89;color:#000000;stroke-width:1.4" id="rect4020" d="M 2,2 2,3 8,3 8,2 2,2 Z M 2,5 2,6 14,6 14,5 2,5 Z M 2,8 2,9 7,9 7,8 2,8 Z m 6,0 0,6 6,0 0,-6 -6,0 z m 1,1 4,0 0,4 -4,0 0,-4 z m -7,1 0,1 5,0 0,-1 -5,0 z m 0,3 0,1 5,0 0,-1 -5,0 z"/>
</svg>
